dist/assets/images/fifthPart/Group 1338.svg

<svg width="65" height="43" viewBox="0 0 65 43" fill="none" xmlns="http://www.w3.org/2000/svg">
<g id="Group 1338">
<g id="Group 1336">
<path id="Vector" d="M28.0576 40.363L19.9748 36.8715C19.665 36.7385 19.3276 36.6824 18.9914 36.7082C18.6552 36.734 18.3302 36.8409 18.0444 37.0197L10.5877 41.6987C10.2583 41.9062 9.87744 42.0175 9.48812 42.02C9.09879 42.0224 8.71655 41.9159 8.3846 41.7125C8.05264 41.509 7.7842 41.2168 7.60963 40.8688C7.43506 40.5208 7.36133 40.1309 7.39675 39.7432L8.23153 30.978C8.26253 30.6422 8.2117 30.3039 8.0834 29.9921C7.9551 29.6802 7.75315 29.4041 7.49483 29.1874L0.739365 23.5422C0.443604 23.2921 0.223285 22.9646 0.103064 22.5964C-0.0171564 22.2282 -0.0325281 21.8338 0.0586604 21.4573C0.149849 21.0809 0.343997 20.7372 0.619389 20.4648C0.89478 20.1925 1.24055 20.0021 1.61798 19.9151L10.2037 17.9805C10.5325 17.9064 10.8384 17.7538 11.0953 17.5357C11.3523 17.3177 11.5526 17.0406 11.6792 16.7283L14.9619 8.55996C15.1086 8.20148 15.3521 7.89089 15.6652 7.66292C15.9783 7.43495 16.3487 7.29861 16.7348 7.26915C17.121 7.2397 17.5078 7.31829 17.8518 7.49613C18.1959 7.67397 18.4837 7.94405 18.683 8.27613L23.1678 15.8497C23.3401 16.1397 23.58 16.3837 23.8671 16.5607C24.1543 16.7377 24.48 16.8425 24.8165 16.866L33.6005 17.465C33.9866 17.4936 34.3571 17.6291 34.6706 17.8563C34.9841 18.0834 35.2282 18.3933 35.3757 18.7513C35.5232 19.1092 35.5682 19.5011 35.5057 19.8832C35.4431 20.2653 35.2756 20.6224 35.0217 20.9147L29.2033 27.522C28.9813 27.775 28.8238 28.078 28.7442 28.405C28.6646 28.7321 28.6653 29.0735 28.7463 29.4003L30.8916 37.938C30.9845 38.3136 30.9711 38.7077 30.853 39.0762C30.7348 39.4446 30.5165 39.773 30.2225 40.0246C29.9285 40.2761 29.5703 40.441 29.188 40.5008C28.8057 40.5605 28.4143 40.5128 28.0576 40.363Z" fill="#FE786C"/>
<path id="Vector_2" d="M9.66523 28.6844C9.43101 28.2887 9.13106 27.9358 8.77827 27.6409L4.36646 23.9533C4.14086 23.7647 3.97252 23.5168 3.88049 23.2376C3.78845 22.9583 3.77638 22.6589 3.84565 22.3731C3.91491 22.0874 4.06275 21.8267 4.27244 21.6206C4.48213 21.4145 4.7453 21.2712 5.03219 21.2069L10.644 19.9547C11.291 19.8089 11.893 19.5083 12.3983 19.0786C12.9036 18.649 13.297 18.1031 13.5449 17.4879L15.6903 12.1516C15.8006 11.8792 15.985 11.6432 16.2224 11.4701C16.4599 11.297 16.7411 11.1938 17.0341 11.1721C17.3272 11.1504 17.6205 11.2111 17.8809 11.3473C18.1412 11.4835 18.3583 11.6898 18.5076 11.9429L20.004 14.4702L19.62 14.6997L18.1236 12.1704C18.0159 11.9895 17.8597 11.8422 17.6728 11.7453C17.4859 11.6483 17.2756 11.6054 17.0657 11.6215C16.8557 11.6375 16.6544 11.7119 16.4844 11.8361C16.3144 11.9604 16.1825 12.1296 16.1035 12.3248L13.9602 17.6611C13.6834 18.3425 13.2455 18.9464 12.6838 19.4212C12.1222 19.8959 11.4537 20.2272 10.7358 20.3867L5.12402 21.6389C4.9185 21.6847 4.72993 21.7872 4.5797 21.9348C4.42947 22.0823 4.32358 22.269 4.27404 22.4737C4.22451 22.6783 4.2333 22.8928 4.29943 23.0927C4.36556 23.2926 4.48639 23.47 4.6482 23.6048L9.06627 27.3008C9.45807 27.6264 9.79122 28.0167 10.0513 28.4548L9.66523 28.6844Z" fill="white"/>
<path id="Vector_3" d="M11.2597 38.6141C11.0404 38.6136 10.8236 38.5674 10.6231 38.4785C10.4227 38.3896 10.2429 38.26 10.0953 38.0978C9.94769 37.9357 9.83543 37.7446 9.7657 37.5367C9.69596 37.3288 9.67027 37.1086 9.69026 36.8903L10.1077 32.5077L10.5522 32.5494L10.1348 36.932C10.1147 37.1418 10.1538 37.3531 10.2478 37.5418C10.3417 37.7305 10.4867 37.889 10.6662 37.9994C10.8458 38.1099 11.0527 38.1677 11.2634 38.1664C11.4742 38.1652 11.6804 38.1048 11.8586 37.9922L16.7295 34.9369C17.3545 34.5501 18.0633 34.3191 18.7961 34.2632C19.529 34.2072 20.2646 34.3281 20.941 34.6155L26.221 36.8965C26.4145 36.9801 26.6275 37.0078 26.8359 36.9765C27.0443 36.9453 27.2398 36.8563 27.4003 36.7197C27.5608 36.5832 27.6798 36.4044 27.744 36.2036C27.8081 36.0029 27.8148 35.7882 27.7633 35.5838L26.3629 30.0075C26.1846 29.2951 26.182 28.55 26.3554 27.8364C26.5288 27.1228 26.873 26.462 27.3584 25.9108L31.1566 21.595C31.2984 21.4374 31.3927 21.2429 31.4289 21.034C31.4651 20.8251 31.4416 20.6103 31.3612 20.4141C31.2808 20.218 31.1467 20.0485 30.9743 19.9252C30.8019 19.8018 30.5982 19.7296 30.3866 19.7168L24.6495 19.3244C24.0588 19.285 23.4815 19.1297 22.9508 18.8674L23.1595 18.4667C23.6378 18.7047 24.1583 18.8465 24.6913 18.8841L30.4283 19.2743C30.7215 19.2945 31.0032 19.3962 31.2416 19.5681C31.48 19.74 31.6656 19.9751 31.7774 20.2469C31.8892 20.5187 31.9228 20.8163 31.8743 21.1062C31.8258 21.396 31.6972 21.6666 31.5031 21.8872L27.7027 26.203C27.2658 26.7004 26.9559 27.2963 26.7997 27.9396C26.6434 28.5829 26.6453 29.2545 26.8054 29.8969L28.2078 35.4753C28.2786 35.7604 28.2685 36.0597 28.1785 36.3393C28.0885 36.6189 27.9222 36.8679 27.6983 37.0581C27.4745 37.2484 27.2019 37.3723 26.9114 37.416C26.6209 37.4598 26.324 37.4215 26.0541 37.3056L20.7761 35.0266C20.1664 34.766 19.5027 34.6563 18.8415 34.7068C18.1803 34.7573 17.541 34.9665 16.9779 35.3167L12.107 38.372C11.8533 38.5317 11.5594 38.6156 11.2597 38.6141Z" fill="white"/>
</g>
<g id="Group 1337">
<path id="Vector_4" d="M44.4919 24.1814L50.4 21.6311C50.6263 21.5332 50.873 21.492 51.1188 21.5109C51.3647 21.5298 51.6022 21.6083 51.8108 21.7397L57.2598 25.1581C57.5002 25.3087 57.7779 25.3891 58.0616 25.3903C58.3452 25.3914 58.6235 25.3133 58.8651 25.1646C59.1067 25.0159 59.3019 24.8026 59.4287 24.5489C59.5555 24.2951 59.6088 24.011 59.5826 23.7285L58.9816 17.3216C58.9584 17.0762 58.9953 16.8288 59.0891 16.6008C59.183 16.3728 59.3308 16.1711 59.52 16.0131L64.4556 11.8934C64.673 11.7113 64.8352 11.472 64.9238 11.2025C65.0125 10.9331 65.024 10.6443 64.9571 10.3686C64.8903 10.093 64.7477 9.84152 64.5455 9.64262C64.3433 9.44372 64.0895 9.3053 63.8128 9.24299L57.5353 7.83638C57.2946 7.782 57.0707 7.67004 56.8828 7.51011C56.6948 7.35017 56.5485 7.14703 56.4563 6.91812L54.0564 0.949444C53.9503 0.687318 53.7732 0.459994 53.545 0.293049C53.3167 0.126104 53.0464 0.0261632 52.7645 0.0044757C52.4826 -0.0172118 52.2002 0.0402141 51.9491 0.170289C51.698 0.300364 51.4882 0.497928 51.3433 0.740749L48.0626 6.27744C47.9371 6.4894 47.7619 6.66762 47.5521 6.7967C47.3423 6.92578 47.1042 7.00184 46.8585 7.0183L40.439 7.45656C40.1554 7.47454 39.8825 7.57171 39.6513 7.73703C39.4202 7.90235 39.24 8.12919 39.1313 8.39177C39.0226 8.65436 38.9898 8.94216 39.0365 9.22249C39.0832 9.50282 39.2076 9.76443 39.3955 9.9776L43.6487 14.8005C43.8121 14.9853 43.9279 15.2071 43.9861 15.4468C44.0443 15.6865 44.0431 15.9367 43.9826 16.1758L42.4153 22.4158C42.3461 22.6909 42.3551 22.9798 42.4416 23.25C42.528 23.5202 42.6884 23.7607 42.9045 23.9445C43.1206 24.1282 43.3838 24.2478 43.6643 24.2896C43.9449 24.3315 44.2315 24.294 44.4919 24.1814Z" fill="#2E1AAD"/>
<path id="Vector_5" d="M57.9277 15.6499C58.0997 15.362 58.3192 15.1051 58.5767 14.8903L61.8011 12.1939C61.9659 12.0559 62.0889 11.8746 62.156 11.6703C62.2231 11.4661 62.2318 11.2472 62.181 11.0383C62.1302 10.8294 62.0219 10.6389 61.8685 10.4883C61.715 10.3378 61.5225 10.2331 61.3127 10.1863L57.214 9.26802C56.7407 9.16221 56.3003 8.94275 55.9309 8.62859C55.5615 8.31442 55.2741 7.91502 55.0936 7.4649L53.5263 3.56647C53.4462 3.36701 53.312 3.19394 53.1387 3.06681C52.9654 2.93968 52.76 2.86356 52.5457 2.84706C52.3314 2.83056 52.1168 2.87433 51.9261 2.97344C51.7353 3.07254 51.5762 3.22302 51.4665 3.40786L50.3708 5.25691L50.6526 5.42177L51.7462 3.57482C51.824 3.44145 51.9381 3.33284 52.0751 3.26156C52.2121 3.19028 52.3665 3.15924 52.5204 3.17204C52.6743 3.18204 52.8221 3.2359 52.9464 3.32725C53.0706 3.41859 53.1661 3.54361 53.2216 3.68751L54.7889 7.58803C54.9902 8.08653 55.3094 8.52881 55.719 8.87701C56.1286 9.2252 56.6165 9.46894 57.1409 9.58733L61.2418 10.5056C61.3897 10.5424 61.5248 10.6191 61.6322 10.7272C61.7397 10.8353 61.8155 10.9708 61.8514 11.119C61.8873 11.2672 61.882 11.4224 61.836 11.5677C61.7899 11.7131 61.705 11.843 61.5903 11.9435L58.368 14.6398C58.0816 14.8749 57.8373 15.1573 57.646 15.4746L57.9277 15.6499Z" fill="white"/>
<path id="Vector_6" d="M56.7632 22.9042C56.9226 22.9033 57.0801 22.8695 57.2257 22.8048C57.3714 22.7402 57.5022 22.6461 57.6097 22.5285C57.7173 22.4109 57.7995 22.2724 57.8509 22.1215C57.9024 21.9707 57.9222 21.8108 57.9089 21.652L57.6105 18.4423L57.2849 18.4736L57.5855 21.675C57.5949 21.8258 57.5633 21.9764 57.4939 22.1106C57.4244 22.2449 57.3199 22.3578 57.1913 22.4372C57.0628 22.5167 56.9151 22.5598 56.764 22.5619C56.6129 22.564 56.464 22.5251 56.3333 22.4492L52.773 20.2162C52.3148 19.9299 51.794 19.7591 51.2553 19.7184C50.7166 19.6777 50.1761 19.7683 49.6801 19.9824L45.8234 21.652C45.6821 21.7091 45.5279 21.7264 45.3775 21.7021C45.2271 21.6778 45.0862 21.6127 44.9701 21.514C44.854 21.4154 44.7671 21.2868 44.7189 21.1422C44.6706 20.9977 44.6629 20.8427 44.6965 20.6941L45.7149 16.6141C45.8461 16.0925 45.8486 15.5468 45.7221 15.024C45.5956 14.5012 45.3439 14.017 44.9886 13.6131L42.2109 10.4597C42.1126 10.3429 42.0482 10.2014 42.0247 10.0506C42.0012 9.89983 42.0194 9.74547 42.0775 9.60432C42.1356 9.46318 42.2313 9.34065 42.3542 9.25008C42.477 9.15952 42.6224 9.10438 42.7744 9.09065L46.9671 8.80682C47.4024 8.77771 47.8278 8.66355 48.2192 8.47082L48.0731 8.17865C47.7238 8.35189 47.3436 8.45404 46.9545 8.47917L42.7618 8.76299C42.5473 8.77726 42.3411 8.85138 42.1666 8.97694C41.9921 9.10249 41.8563 9.27445 41.7746 9.4733C41.6929 9.67215 41.6685 9.88993 41.7043 10.1019C41.7401 10.3139 41.8347 10.5116 41.9772 10.6726L44.7528 13.828C45.0747 14.1927 45.3027 14.6305 45.4169 15.1033C45.5311 15.5761 45.5281 16.0697 45.4081 16.5411L44.3855 20.6169C44.3333 20.8253 44.3404 21.0441 44.406 21.2486C44.4717 21.4532 44.5932 21.6353 44.7568 21.7744C44.9205 21.9136 45.1198 22.0042 45.3322 22.036C45.5447 22.0678 45.7618 22.0397 45.9591 21.9546L49.8157 20.2851C50.2612 20.0946 50.7459 20.0142 51.229 20.0505C51.7121 20.0869 52.1794 20.2389 52.5914 20.4938L56.1496 22.7268C56.3335 22.8421 56.5461 22.9036 56.7632 22.9042Z" fill="white"/>
<path id="Vector_7" d="M50.3721 5.26537L50.6541 5.4323L50.0055 6.52771L49.7235 6.36078L50.3721 5.26537Z" fill="white"/>
</g>
</g>
</svg>

<svg width="65" height="43" fill="none" xmlns="http://www.w3.org/2000/svg"><path d="M28.058 40.363l-8.083-3.492a2.088 2.088 0 00-1.93.149l-7.457 4.679a2.088 2.088 0 01-3.191-1.956l.835-8.765a2.087 2.087 0 00-.737-1.79L.739 23.541a2.087 2.087 0 01.879-3.627l8.586-1.934a2.086 2.086 0 001.475-1.253l3.283-8.168a2.088 2.088 0 013.721-.284l4.485 7.574a2.088 2.088 0 001.649 1.016l8.783.599a2.086 2.086 0 011.422 3.45l-5.819 6.607a2.087 2.087 0 00-.457 1.878l2.146 8.538a2.087 2.087 0 01-2.834 2.425z" fill="#FE786C"/><path d="M9.665 28.684a4.046 4.046 0 00-.887-1.043l-4.412-3.688a1.576 1.576 0 01.666-2.746l5.612-1.252a4.099 4.099 0 002.9-2.467l2.146-5.336a1.575 1.575 0 012.818-.21l1.496 2.528-.384.23-1.496-2.53a1.13 1.13 0 00-2.02.155L13.96 17.66a4.543 4.543 0 01-3.224 2.726l-5.612 1.252a1.126 1.126 0 00-.476 1.966L9.066 27.3c.392.325.725.716.985 1.154l-.386.23zm1.595 9.93a1.58 1.58 0 01-1.57-1.724l.418-4.382.444.041-.417 4.383a1.127 1.127 0 001.724 1.06l4.87-3.055a4.59 4.59 0 014.212-.322l5.28 2.282a1.128 1.128 0 001.542-1.313l-1.4-5.577a4.533 4.533 0 01.995-4.096l3.799-4.316a1.126 1.126 0 00-.77-1.878l-5.738-.393a4.512 4.512 0 01-1.698-.457l.209-.4c.478.238.998.38 1.531.417l5.737.39a1.576 1.576 0 011.075 2.613l-3.8 4.316a4.096 4.096 0 00-.898 3.694l1.403 5.578a1.579 1.579 0 01-2.154 1.83l-5.278-2.278a4.124 4.124 0 00-3.798.29l-4.871 3.055a1.57 1.57 0 01-.847.242z" fill="#fff"/><path d="M44.492 24.181l5.908-2.55a1.517 1.517 0 011.41.109l5.45 3.418a1.522 1.522 0 002.323-1.43l-.601-6.406a1.519 1.519 0 01.538-1.309l4.936-4.12a1.52 1.52 0 00-.643-2.65l-6.278-1.407a1.525 1.525 0 01-1.079-.918L54.056.95a1.52 1.52 0 00-2.713-.208l-3.28 5.536a1.517 1.517 0 01-1.205.741l-6.419.439a1.52 1.52 0 00-1.044 2.52L43.65 14.8a1.515 1.515 0 01.334 1.376l-1.568 6.24a1.52 1.52 0 002.077 1.765z" fill="#2E1AAD"/><path d="M57.928 15.65c.172-.288.391-.545.649-.76l3.224-2.696a1.152 1.152 0 00-.488-2.008l-4.099-.918a2.986 2.986 0 01-2.12-1.803l-1.568-3.899a1.152 1.152 0 00-2.06-.158l-1.095 1.849.282.165 1.093-1.847a.818.818 0 01.774-.403.808.808 0 01.702.516l1.567 3.9a3.327 3.327 0 002.352 2l4.1.918a.835.835 0 01.35 1.438l-3.223 2.696c-.286.235-.53.517-.722.835l.282.175zm-1.165 7.254a1.155 1.155 0 001.146-1.252l-.298-3.21-.326.032.3 3.201a.835.835 0 01-1.252.774l-3.56-2.233a3.339 3.339 0 00-3.093-.234l-3.857 1.67a.835.835 0 01-1.127-.958l1.019-4.08a3.319 3.319 0 00-.726-3L42.21 10.46a.835.835 0 01.563-1.37l4.193-.283c.435-.03.86-.143 1.252-.336l-.146-.292c-.35.173-.73.275-1.118.3l-4.193.284a1.15 1.15 0 00-.785 1.91l2.776 3.155a2.987 2.987 0 01.655 2.713l-1.023 4.076a1.152 1.152 0 001.574 1.338l3.857-1.67a3.019 3.019 0 012.775.209l3.559 2.233c.184.115.396.177.613.177z" fill="#fff"/><path d="M50.372 5.265l.282.167-.649 1.096-.282-.167.65-1.096z" fill="#fff"/></svg>
